X: 15923
T: Grandfather's
R: polka
M: 2/4
K: Dmajor
|:A2 Bc|d/c/d/e/ fa|gf ed|cB AG|
FA Bc|d/c/d/e/ fa|gf ec|d2 d2:|
|:eA eA|gf eA|gf ed|cB AG|
FA Bc|d/c/d/e/ fa|gf ec|d2 d2:|

